X: 1
T: Connaught Heifers, The
M: 4/4
L: 1/8
R: reel
K: Dmaj
~F3G A2BG|~A2BG AGFD|~F3G AGGF|DGGB =cAAG|
FDFG A2BG|~A2BG AGFD|~F3G AGGF|DGGB =cAAg||
|fdec d2=cA|B=cBG ABde|~f2ec d2=cA|BG~G2 AGFd|
|fgec d2=cA|(3B=cd BG ABde|~f2ec d2=cA|BG~G2 AGFD||
